libs/ui/packages/crypto-icons/src/svg/XMR.svg

<svg width="24" height="24" viewBox="0 0 24 24" fill="none">
<path d="M11.9992 3.89325C16.488 3.89325 20.118 7.52325 20.118 12.0112C20.1149 12.8859 19.9737 13.7547 19.6995 14.5852H17.28V7.76475L12 13.0447L6.71996 7.76475V14.5852H4.29971C4.02574 13.7546 3.88476 12.8859 3.88196 12.0112C3.88196 7.52325 7.51196 3.89325 12 3.89325H11.9992ZM10.7902 14.232L12.0217 15.4432L13.2315 14.2327L15.5197 11.9227V16.2127H18.93C18.2066 17.4024 17.189 18.3857 15.9752 19.0677C14.7613 19.7498 13.3923 20.1076 12 20.1068C9.07346 20.1068 6.49946 18.5452 5.06996 16.2127H8.47946V11.9227L10.7895 14.2327L10.7902 14.232Z" fill="#FF6600"/>
</svg>

<svg width="24" height="24" viewBox="0 0 24 24" fill="none"><path fill="#f60" d="M12 3.893a8.112 8.112 0 0 1 7.7 10.692h-2.42v-6.82L12 13.045l-5.28-5.28v6.82H4.3a8.3 8.3 0 0 1-.418-2.574A8.11 8.11 0 0 1 12 3.893m-1.21 10.339 1.232 1.211 1.21-1.21 2.288-2.31v4.29h3.41A8.1 8.1 0 0 1 12 20.107a8.13 8.13 0 0 1-6.93-3.894h3.41v-4.29z"/></svg>
